packages/kaspersky-hexa-ui-icons/src/iconsSVGs/48/FlashDrive.svg

<svg xmlns="http://www.w3.org/2000/svg" width="48" height="48" fill="none" viewBox="0 0 48 48"><path fill="currentColor" fill-rule="evenodd" d="M35 14V0H13v14H9v29c0 2.7614 2.2386 5 5 5h20c2.7614 0 5-2.2386 5-5V14zM15 2h18v12H15zm22 41c0 1.6569-1.3431 3-3 3H14c-1.6569 0-3-1.3431-3-3V16h26zM18 12h5V4h-5zm2-6h1v4h-1zm5-2v8h5V4zm3 6h-1V6h1zm3 16H17v-2h14zm0 6H17v-2h14zm0 6H17v-2h14z" clip-rule="evenodd"/></svg>

<svg width="48" height="48" viewBox="0 0 48 48" fill="none" xmlns="http://www.w3.org/2000/svg">
<path fill-rule="evenodd" clip-rule="evenodd" d="M35 14V0H13V14H9V43C9 45.7614 11.2386 48 14 48H34C36.7614 48 39 45.7614 39 43V14H35ZM15 2H33V14H15V2ZM37 43C37 44.6569 35.6569 46 34 46H14C12.3431 46 11 44.6569 11 43V16H37V43ZM18 12H23V4H18V12ZM20 6H21V10H20V6ZM25 4V12H30V4H25ZM28 10H27V6H28V10ZM31 26H17V24H31V26ZM31 32H17V30H31V32ZM31 38H17V36H31V38Z"  fill="currentColor"/>
</svg>
